img/multiply.svg

<svg width="56" height="56" viewBox="0 0 56 56" fill="none" xmlns="http://www.w3.org/2000/svg">
<circle cx="28" cy="28" r="28" fill="#79C8C7"/>
<path fill-rule="evenodd" clip-rule="evenodd" d="M35.0711 23.7573L32.2426 20.9289L28 25.1716L23.7574 20.9289L20.9289 23.7573L25.1716 28L20.9289 32.2426L23.7574 35.0711L28 30.8284L32.2426 35.0711L35.0711 32.2426L30.8284 28L35.0711 23.7573Z" fill="#012F34"/>
</svg>

<svg width="56" height="56" fill="none" xmlns="http://www.w3.org/2000/svg"><circle cx="28" cy="28" r="28" fill="#79C8C7"/><path fill-rule="evenodd" clip-rule="evenodd" d="M35.071 23.757l-2.828-2.828L28 25.172l-4.243-4.243-2.828 2.828L25.172 28l-4.243 4.243 2.828 2.828L28 30.828l4.243 4.243 2.828-2.828L30.828 28l4.243-4.243z" fill="#012F34"/></svg>
